svg/religious_buddhist-11.svg

<svg version="1.1" xmlns="http://www.w3.org/2000/svg" xmlns:xlink="http://www.w3.org/1999/xlink"
	 width="11px" height="11px" viewBox="0 0 11 11">
<path d="M11.0016,5.8008v-0.5H9.9895C9.93427,4.28235,9.53269,3.31335,8.8513,2.5544l0.8271-0.8271l-0.354-0.3541L8.5012,2.2
	c-0.75994-0.68207-1.73031-1.08369-2.75-1.1382V0h-0.5v1.0622c-0.99761,0.05474-1.94816,0.442-2.7,1.1l-0.876-0.886L1.32,1.6282
	L2.19,2.5C1.48299,3.26753,1.06626,4.25789,1.0118,5.3H0v0.5h1.0121C1.06715,6.81867,1.46863,7.78795,2.15,8.5472L1.3229,9.3743
	l0.3543,0.3541L2.5,8.9013c0.75994,0.68207,1.73031,1.08369,2.75,1.1382v0.9621h0.5v-0.9621
	C6.77029,9.98353,7.74071,9.58012,8.5,8.8963l0.82,0.8311l0.3551-0.3521L8.8553,8.5412c0.67858-0.75782,1.07864-1.72428,1.1342-2.74
	h1.0121V5.8008z M9.5624,5.3008H6.1009l2.4483-2.4444C9.15109,3.53478,9.50787,4.39554,9.5624,5.3008z M8.1952,2.5L5.7508,4.9467
	V1.4892C6.65579,1.54295,7.51655,1.89889,8.1952,2.5z M5.2508,1.4892v3.4L2.85,2.4614C3.5221,1.88298,4.36561,1.5414,5.2508,1.4892z
	 M2.4914,2.8092l2.46,2.4914H1.4392c0.05523-0.92636,0.42665-1.80572,1.0522-2.4912L2.4914,2.8092z M1.4392,5.8008h3.4615
	L2.4524,8.2452C1.85051,7.56682,1.49373,6.70606,1.4392,5.8008z M2.8064,8.6008l2.4444-2.4469v3.4575
	C4.34592,9.55774,3.4852,9.20206,2.8064,8.6013V8.6008z M5.7508,9.6108V6.1109l2.45,2.4814
	c-0.67905,0.60519-1.54206,0.96416-2.45,1.0191V9.6108z M8.5508,8.2366L6.1479,5.8008h3.4145
	C9.5079,6.70256,9.15336,7.56019,8.5552,8.2372h-0.004L8.5508,8.2366z"/>
</svg>

<svg xmlns="http://www.w3.org/2000/svg" width="11" height="11">
    <path d="M11.002 5.8v-.5H9.989a4.474 4.474 0 0 0-1.138-2.746l.827-.827-.354-.354-.823.827a4.475 4.475 0 0 0-2.75-1.138V0h-.5v1.062a4.472 4.472 0 0 0-2.7 1.1l-.876-.886-.355.352.87.872a4.478 4.478 0 0 0-1.178 2.8H0v.5h1.012A4.475 4.475 0 0 0 2.15 8.547l-.827.827.354.354.823-.827a4.475 4.475 0 0 0 2.75 1.139v.962h.5v-.963A4.476 4.476 0 0 0 8.5 8.896l.82.831.355-.352-.82-.834a4.474 4.474 0 0 0 1.134-2.74h1.013zm-1.44-.5H6.101l2.448-2.444a4.05 4.05 0 0 1 1.013 2.445zM8.195 2.5L5.751 4.947V1.489c.905.054 1.766.41 2.444 1.011zM5.251 1.49v3.4L2.85 2.46a4.046 4.046 0 0 1 2.4-.972zM2.49 2.81l2.46 2.49H1.44a4.054 4.054 0 0 1 1.052-2.49zM1.44 5.8h3.462L2.452 8.246A4.05 4.05 0 0 1 1.44 5.801zm1.367 2.8l2.445-2.446V9.61a4.05 4.05 0 0 1-2.445-1.01zm2.945 1.01v-3.5L8.2 8.593a4.05 4.05 0 0 1-2.45 1.02V9.61zm2.8-1.373L6.148 5.8h3.414a4.049 4.049 0 0 1-1.007 2.436h-.004z"/>
</svg>
